images_sukapura_svg/cmd/sc_exportdirecttoepub.svg

<svg viewBox="0 0 16 16" xmlns="http://www.w3.org/2000/svg" xmlns:xlink="http://www.w3.org/1999/xlink"><linearGradient id="a" gradientUnits="userSpaceOnUse" x1="-18.583488" x2="-18.583488" y1="20.61017" y2="13.539858"><stop offset="0" stop-color="#2a9240"/><stop offset="1" stop-color="#32d74b"/></linearGradient><linearGradient id="b" gradientUnits="userSpaceOnUse" x1="10" x2="11.500001" y1="4" y2="2.499999"><stop offset="0" stop-color="#fff"/><stop offset=".77967989" stop-color="#f1f1f1"/><stop offset="1" stop-color="#d5d5d5"/></linearGradient><radialGradient id="c" cx="10.994179" cy="4.42844" gradientTransform="matrix(1.4 .00000004 -.00000001 1.2 -4.39185 -2.314129)" gradientUnits="userSpaceOnUse" r="5"><stop offset="0" stop-color="#d7d7d7"/><stop offset=".49894297" stop-color="#f7f7f7"/><stop offset="1" stop-color="#fff"/></radialGradient><path d="m3 1v14h10v-11.2949219l-2.695312-2.7050781z" fill="url(#c)"/><path d="m3 0c-.554 0-1 .446-1 1v14c0 .554.446 1 1 1h10c.554 0 1-.446 1-1v-10.5-.8632812l-3.636719-3.6367188h-.863281zm0 1h6v3.5c0 .277.223.5.5.5h3.5v10h-10zm7 0 3 3h-3z" fill="#98989d"/><path d="m10 1 3 3h-3z" fill="url(#b)"/><path d="m12.519531 5.9296875a1.0001 1.0001 0 0 0 -.691406.2929687l-3.5351562 3.5351563a1.0001 1.0001 0 0 0 0 1.4140625l.7070312.707031 2.828125 2.828125a1.0001 1.0001 0 0 0 .722656.292969 1.0001 1.0001 0 0 0 .449219-.115234 1.0001 1.0001 0 0 0 .242188-.177735l.707031-.707031.050781-.050781v-6.9687502l-.050781-.0507813-.707031-.7070313a1.0001 1.0001 0 0 0 -.242188-.1777343 1.0001 1.0001 0 0 0 -.480469-.1152344z" fill="#fff" fill-opacity=".784314"/><path d="m12.535156 6.929688-3.535156 3.535156.707031.707031 2.828125 2.828125.707032-.707031 2.828124-2.828125-.707031-.707032-2.828125 2.828126-2.121093-2.121094 2.121093-2.121094.707032.707031-1.414062 1.414063.70703.707031 1.414064-1.414063.707031-.707031-1.414062-1.414062z" fill="url(#a)"/></svg>

<?xml version="1.0" encoding="UTF-8" standalone="no"?>
<svg
   xmlns:dc="http://purl.org/dc/elements/1.1/"
   xmlns:cc="http://creativecommons.org/ns#"
   xmlns:rdf="http://www.w3.org/1999/02/22-rdf-syntax-ns#"
   xmlns:svg="http://www.w3.org/2000/svg"
   xmlns="http://www.w3.org/2000/svg"
   xmlns:xlink="http://www.w3.org/1999/xlink"
   xmlns:sodipodi="http://sodipodi.sourceforge.net/DTD/sodipodi-0.dtd"
   xmlns:inkscape="http://www.inkscape.org/namespaces/inkscape"
   viewBox="0 0 16 16"
   version="1.1"
   id="svg22"
   sodipodi:docname="sc_exportdirecttoepub.svg"
   inkscape:version="0.92.3 (unknown)"
   inkscape:export-filename="/home/rizmut/Dokumen/Rizmut/Github/libreoffice-style-sukapura/images_sukapura/cmd/sc_exportdirecttoepub.png"
   inkscape:export-xdpi="96"
   inkscape:export-ydpi="96">
  <metadata
     id="metadata28">
    <rdf:RDF>
      <cc:Work
         rdf:about="">
        <dc:format>image/svg+xml</dc:format>
        <dc:type
           rdf:resource="http://purl.org/dc/dcmitype/StillImage" />
        <dc:title></dc:title>
      </cc:Work>
    </rdf:RDF>
  </metadata>
  <defs
     id="defs26">
    <linearGradient
       gradientTransform="translate(-31.118644,6.6101695)"
       id="a-36"
       gradientUnits="userSpaceOnUse"
       x1="14"
       x2="13.79661"
       y1="22"
       y2="2.1355929">
      <stop
         offset="0"
         stop-color="#0040dd"
         id="stop1586"
         style="stop-color:#2a9240;stop-opacity:1" />
      <stop
         offset="1"
         stop-color="#0a84ff"
         id="stop1588"
         style="stop-color:#32d74b;stop-opacity:1" />
    </linearGradient>
    <linearGradient
       inkscape:collect="always"
       xlink:href="#a-36"
       id="linearGradient1059"
       x1="12.535156"
       y1="14"
       x2="12.535156"
       y2="6.929688"
       gradientUnits="userSpaceOnUse" />
  </defs>
  <sodipodi:namedview
     pagecolor="#ffffff"
     bordercolor="#666666"
     borderopacity="1"
     objecttolerance="10"
     gridtolerance="10"
     guidetolerance="10"
     inkscape:pageopacity="0"
     inkscape:pageshadow="2"
     inkscape:window-width="1366"
     inkscape:window-height="706"
     id="namedview24"
     showgrid="false"
     inkscape:zoom="7.375"
     inkscape:cx="18.312421"
     inkscape:cy="9.3251349"
     inkscape:window-x="0"
     inkscape:window-y="0"
     inkscape:window-maximized="1"
     inkscape:current-layer="svg22" />
  <linearGradient
     id="a"
     gradientUnits="userSpaceOnUse"
     x1="10"
     x2="11.5000006"
     y1="4"
     y2="2.4999994">
    <stop
       offset="0"
       stop-color="#fff"
       id="stop2" />
    <stop
       offset=".77967989"
       stop-color="#f1f1f1"
       id="stop4" />
    <stop
       offset="1"
       stop-color="#d5d5d5"
       id="stop6" />
  </linearGradient>
  <radialGradient
     id="b"
     cx="10.994179"
     cy="4.42844"
     gradientTransform="matrix(1.4 .00000004 -.00000001 1.2 -4.39185 -2.314129)"
     gradientUnits="userSpaceOnUse"
     r="5">
    <stop
       offset="0"
       stop-color="#d7d7d7"
       id="stop9" />
    <stop
       offset=".49894297"
       stop-color="#f7f7f7"
       id="stop11" />
    <stop
       offset="1"
       stop-color="#fff"
       id="stop13" />
  </radialGradient>
  <g
     id="g838">
    <path
       id="path16"
       fill="url(#b)"
       d="m3 1v14h10v-11.2949219l-2.695312-2.7050781z" />
    <path
       id="path18"
       fill="#98989d"
       d="m3 0c-.554 0-1 .446-1 1v14c0 .554.446 1 1 1h10c.554 0 1-.446 1-1v-10.5-.8632812l-3.636719-3.6367188h-.863281zm0 1h6v3.5c0 .277.223.5.5.5h3.5v10h-10zm7 0 3 3h-3z" />
    <path
       id="path20"
       fill="url(#a)"
       d="m10 1 3 3h-3z" />
  </g>
  <path
     style="fill:#ffffff;fill-opacity:0.78431374"
     d="M 12.519531 5.9296875 A 1.0001 1.0001 0 0 0 11.828125 6.2226562 L 8.2929688 9.7578125 A 1.0001 1.0001 0 0 0 8.2929688 11.171875 L 9 11.878906 L 11.828125 14.707031 A 1.0001 1.0001 0 0 0 12.550781 15 A 1.0001 1.0001 0 0 0 13 14.884766 A 1.0001 1.0001 0 0 0 13.242188 14.707031 L 13.949219 14 L 14 13.949219 L 14 6.9804688 L 13.949219 6.9296875 L 13.242188 6.2226562 A 1.0001 1.0001 0 0 0 13 6.0449219 A 1.0001 1.0001 0 0 0 12.519531 5.9296875 z "
     id="path972" />
  <path
     inkscape:connector-curvature="0"
     style="fill:url(#linearGradient1059);fill-opacity:1"
     d="M 12.535156,6.929688 9,10.464844 9.707031,11.171875 12.535156,14 l 0.707032,-0.707031 2.828124,-2.828125 -0.707031,-0.707032 -2.828125,2.828126 -2.121093,-2.121094 2.121093,-2.121094 0.707032,0.707031 -1.414062,1.414063 0.70703,0.707031 1.414064,-1.414063 0.707031,-0.707031 -1.414062,-1.414062 z"
     id="path6" />
</svg>
